X:23
T:Pappy MacMeachum's Reel
F:http://www.hiico.com/.abc/pappy_macmeachum.abc
K:G
M:4/4
L:1/8
Z:Lee Wenzbauer lee@hiico.com 19 Sep 2004
D2|: "G" GABc dBGB | "C" c2cd efgz | "G" GABc dBGB | "A" AGFE "D7" D2D2 | "G" GABc dBGB | "C" c2cd efge | "G" d2g2 "D" fga2 |[1 "G" g4 g2D2 :|[2 "G" g4 g2fg|: "D" a2fg a2fg | abag fedB | "C" cdef g2ge | "G" dBAB G2B2 | "C" c2cd efge | "G" dBAB G2Bc | d2g2 "D" fga2 |[1 "G" g4 g2fg :|[2 "G" g4 g4 |
